img/svg/Telegram.svg

<svg width="50" height="50" viewBox="0 0 50 50" fill="none" xmlns="http://www.w3.org/2000/svg">
<path d="M25 0C11.1895 0 0 11.1895 0 25C0 38.8105 11.1895 50 25 50C38.8105 50 50 38.8105 50 25C50 11.1895 38.8105 0 25 0ZM37.2782 17.127L33.1754 36.4617C32.873 37.8327 32.0565 38.1653 30.9173 37.5202L24.6673 32.9133L21.6532 35.8165C21.3206 36.1492 21.0383 36.4314 20.3931 36.4314L20.8367 30.0706L32.4194 19.6069C32.9234 19.1633 32.3085 18.9113 31.6431 19.3548L17.3286 28.3669L11.1593 26.4415C9.81855 26.0181 9.78831 25.1008 11.4415 24.4556L35.5444 15.1613C36.6633 14.7581 37.6411 15.4335 37.2782 17.127Z" fill="white"/>
</svg>

<svg width="50" height="50" fill="none" xmlns="http://www.w3.org/2000/svg"><path d="M25 0C11.19 0 0 11.19 0 25s11.19 25 25 25 25-11.19 25-25S38.81 0 25 0zm12.278 17.127l-4.103 19.335c-.302 1.37-1.118 1.703-2.258 1.058l-6.25-4.607-3.014 2.904c-.332.332-.615.614-1.26.614l.444-6.36 11.582-10.464c.504-.444-.11-.696-.776-.252L17.33 28.367l-6.17-1.925c-1.34-.424-1.37-1.341.282-1.986l24.103-9.295c1.12-.403 2.097.273 1.734 1.966z" fill="#fff"/></svg>
